.svelte-kit/output/client/library/social-虎牙.svg

<svg width="48" height="48" viewBox="0 0 48 48" fill="none" xmlns="http://www.w3.org/2000/svg">
<path fill-rule="evenodd" clip-rule="evenodd" d="M42.7867 29.9005C42.9431 29.0631 43.0241 27.6789 43.0241 26.7477C42.0241 26.2477 39.5241 25.9821 39.5241 26.2477C39.5241 26.3369 39.7493 26.5351 40.0962 26.8405C40.7833 27.4452 41.9478 28.4701 42.7867 29.9005ZM41.648 33.2477C40.5241 31.7477 36.8053 30.6227 36.8053 31.2477C36.8053 31.3938 36.952 31.6252 37.1687 31.967C37.6935 32.7949 38.6287 34.2703 38.8823 36.7477C40.0224 35.7488 40.957 34.5826 41.648 33.2477ZM14.0241 39.0806C14.0241 35.8834 14.6805 34.2608 15.1249 33.1624C15.3522 32.6005 15.5241 32.1758 15.5241 31.7477C15.5241 31.154 11.5241 32.7477 9.82623 36.012C10.9857 37.2202 12.3923 38.2565 14.0241 39.0806ZM7.7688 33.2477C8.6555 30.4222 10.1633 29.0936 10.9723 28.3808C11.3085 28.0844 11.5241 27.8945 11.5241 27.7477C11.5241 27.2477 8.52406 27.7477 6.24596 29.0401C6.52703 30.5408 7.04011 31.9533 7.7688 33.2477Z" fill="#BB5023"/>
<path d="M9.82623 16.2477C7.23528 19.5694 5.79321 23.5539 6.02407 27.2477C6.06217 27.8574 6.13646 28.4554 6.24596 29.0401C8.52406 27.7477 11.5241 27.2477 11.5241 27.7477C11.5241 27.8945 11.3085 28.0844 10.9723 28.3808C10.1633 29.0936 8.6555 30.4222 7.7688 33.2477C8.32946 34.2436 9.01776 35.1696 9.82623 36.012C11.5241 32.7477 15.5241 31.154 15.5241 31.7477C15.5241 32.1758 15.3522 32.6005 15.1249 33.1624C14.6805 34.2608 14.0241 35.8834 14.0241 39.0806C16.7594 40.4622 20.1273 41.2477 24.0241 41.2477C30.1456 41.2477 35.4467 39.7579 38.8823 36.7477C38.6287 34.2703 37.6935 32.7949 37.1687 31.967C36.952 31.6252 36.8053 31.3938 36.8053 31.2477C36.8053 30.6227 40.5241 31.7477 41.648 33.2477C42.1748 32.2301 42.56 31.1145 42.7867 29.9005C41.9478 28.4701 40.7833 27.4452 40.0962 26.8405C39.7493 26.5351 39.5241 26.3369 39.5241 26.2477C39.5241 25.9821 42.0241 26.2477 43.0241 26.7477C43.0241 21.7477 40.5664 16.7809 36.5241 13.2477C35.0241 10.2477 31.0241 7.24773 30.0241 7.24773C29.0241 7.24773 28.0241 7.74773 26.5241 8.8507C25.881 8.78275 25.2251 8.74772 24.5574 8.74772C22.9871 8.74772 21.4694 8.96068 20.0241 9.35078C17.5241 7.74773 14.5241 6.43522 13.5241 7.24773C11.8777 8.58543 10.5241 13.7477 9.82623 16.2477Z" fill="#BB5023"/>
<path fill-rule="evenodd" clip-rule="evenodd" d="M42.7867 29.9005C42.9431 29.0631 43.0241 27.6789 43.0241 26.7477C42.0241 26.2477 39.5241 25.9821 39.5241 26.2477C39.5241 26.3369 39.7493 26.5351 40.0962 26.8405C40.7833 27.4452 41.9478 28.4701 42.7867 29.9005ZM41.648 33.2477C40.5241 31.7477 36.8053 30.6227 36.8053 31.2477C36.8053 31.3938 36.952 31.6252 37.1687 31.967C37.6935 32.7949 38.6287 34.2703 38.8823 36.7477C40.0224 35.7488 40.957 34.5826 41.648 33.2477ZM14.0241 39.0806C14.0241 35.8834 14.6805 34.2608 15.1249 33.1624C15.3522 32.6005 15.5241 32.1758 15.5241 31.7477C15.5241 31.154 11.5241 32.7477 9.82623 36.012C10.9857 37.2202 12.3923 38.2565 14.0241 39.0806ZM7.7688 33.2477C8.6555 30.4222 10.1633 29.0936 10.9723 28.3808C11.3085 28.0844 11.5241 27.8945 11.5241 27.7477C11.5241 27.2477 8.52406 27.7477 6.24596 29.0401C6.52703 30.5408 7.04011 31.9533 7.7688 33.2477Z" fill="#BB5023"/>
<path d="M9.82623 16.2477C7.23528 19.5694 5.79321 23.5539 6.02407 27.2477C6.06217 27.8574 6.13646 28.4554 6.24596 29.0401C8.52406 27.7477 11.5241 27.2477 11.5241 27.7477C11.5241 27.8945 11.3085 28.0844 10.9723 28.3808C10.1633 29.0936 8.6555 30.4222 7.7688 33.2477C8.32946 34.2436 9.01776 35.1696 9.82623 36.012C11.5241 32.7477 15.5241 31.154 15.5241 31.7477C15.5241 32.1758 15.3522 32.6005 15.1249 33.1624C14.6805 34.2608 14.0241 35.8834 14.0241 39.0806C16.7594 40.4622 20.1273 41.2477 24.0241 41.2477C30.1456 41.2477 35.4467 39.7579 38.8823 36.7477C38.6287 34.2703 37.6935 32.7949 37.1687 31.967C36.952 31.6252 36.8053 31.3938 36.8053 31.2477C36.8053 30.6227 40.5241 31.7477 41.648 33.2477C42.1748 32.2301 42.56 31.1145 42.7867 29.9005C41.9478 28.4701 40.7833 27.4452 40.0962 26.8405C39.7493 26.5351 39.5241 26.3369 39.5241 26.2477C39.5241 25.9821 42.0241 26.2477 43.0241 26.7477C43.0241 21.7477 40.5664 16.7809 36.5241 13.2477C34.5 10.5 31 8.00001 30 8C29 7.99999 27 8.74773 26.5241 8.8507C25.881 8.78275 25.2251 8.74773 24.5574 8.74773C22.9871 8.74773 21.4694 8.96068 20.0241 9.35078C17.5 8.00001 15 8.20314 14 8.50001C11.9664 9.10371 11 13 9.82623 16.2477Z" fill="#FDB014"/>
<path d="M38.5 24.5C37.5 28 33.2731 27.4667 25.8457 28.1179C18.4183 28.769 14.5 29.5 12.5 26C10.5 22.5 14 12.9205 24.5 12C35 11.0795 39.5 21 38.5 24.5Z" fill="white" stroke="#BB5023"/>
<path d="M31 20C31 22 25 25.2226 23.5 24.5002C22 23.7778 21.8082 16.5 23.5 15.5C25.1918 14.5 31 18 31 20Z" fill="#BB5023"/>
<path d="M22.9804 33.1382C22.9607 33.7763 22 35.5 21 35.5C20 35.5 18.2284 31.9561 19 31.5C20 32.5 21.5 33 22.9804 33.1382Z" fill="white"/>
<path d="M30 33C30 33 31.4375 34.5 32 34.5C32.5625 34.5 33.5 32 33 31C32 32 31.5 32.5 30 33Z" fill="white"/>
<path d="M19 31.5C22.5 34 30.5 34 33 31" stroke="#BB5023" stroke-linecap="round"/>
</svg>

<svg width="48" height="48" fill="none" xmlns="http://www.w3.org/2000/svg"><path fill-rule="evenodd" clip-rule="evenodd" d="M42.787 29.9c.156-.837.237-2.221.237-3.152-1-.5-3.5-.766-3.5-.5 0 .089.225.287.572.592.687.605 1.852 1.63 2.69 3.06Zm-1.139 3.348c-1.124-1.5-4.843-2.625-4.843-2 0 .146.147.377.364.719.525.828 1.46 2.303 1.713 4.78a11.935 11.935 0 0 0 2.766-3.5ZM14.024 39.08c0-3.198.657-4.82 1.1-5.919.228-.562.4-.986.4-1.414 0-.594-4 1-5.698 4.264 1.16 1.208 2.566 2.245 4.198 3.069ZM7.77 33.248c.886-2.826 2.394-4.154 3.203-4.867.337-.297.552-.486.552-.633 0-.5-3 0-5.278 1.292.281 1.5.794 2.913 1.523 4.208Z" fill="#BB5023"/><path d="M9.826 16.248c-2.59 3.321-4.033 7.306-3.802 11 .038.61.112 1.207.222 1.792 2.278-1.292 5.278-1.792 5.278-1.292 0 .146-.215.336-.552.633-.809.713-2.316 2.041-3.203 4.867.56.996 1.249 1.922 2.057 2.764 1.698-3.264 5.698-4.858 5.698-4.264 0 .428-.172.852-.4 1.414-.444 1.099-1.1 2.721-1.1 5.919 2.735 1.381 6.103 2.167 10 2.167 6.122 0 11.423-1.49 14.858-4.5-.253-2.478-1.188-3.953-1.713-4.781-.217-.342-.364-.573-.364-.72 0-.624 3.72.5 4.843 2a12.056 12.056 0 0 0 1.139-3.346c-.84-1.43-2.004-2.456-2.69-3.06-.348-.306-.573-.504-.573-.593 0-.266 2.5 0 3.5.5 0-5-2.458-9.967-6.5-13.5-1.5-3-5.5-6-6.5-6s-2 .5-3.5 1.603a18.71 18.71 0 0 0-1.967-.103c-1.57 0-3.088.213-4.533.603-2.5-1.603-5.5-2.916-6.5-2.103-1.646 1.337-3 6.5-3.698 9Z" fill="#BB5023"/><path fill-rule="evenodd" clip-rule="evenodd" d="M42.787 29.9c.156-.837.237-2.221.237-3.152-1-.5-3.5-.766-3.5-.5 0 .089.225.287.572.592.687.605 1.852 1.63 2.69 3.06Zm-1.139 3.348c-1.124-1.5-4.843-2.625-4.843-2 0 .146.147.377.364.719.525.828 1.46 2.303 1.713 4.78a11.935 11.935 0 0 0 2.766-3.5ZM14.024 39.08c0-3.198.657-4.82 1.1-5.919.228-.562.4-.986.4-1.414 0-.594-4 1-5.698 4.264 1.16 1.208 2.566 2.245 4.198 3.069ZM7.77 33.248c.886-2.826 2.394-4.154 3.203-4.867.337-.297.552-.486.552-.633 0-.5-3 0-5.278 1.292.281 1.5.794 2.913 1.523 4.208Z" fill="#BB5023"/><path d="M9.826 16.248c-2.59 3.321-4.033 7.306-3.802 11 .038.61.112 1.207.222 1.792 2.278-1.292 5.278-1.792 5.278-1.292 0 .146-.215.336-.552.633-.809.713-2.316 2.041-3.203 4.867.56.996 1.249 1.922 2.057 2.764 1.698-3.264 5.698-4.858 5.698-4.264 0 .428-.172.852-.4 1.414-.444 1.099-1.1 2.721-1.1 5.919 2.735 1.381 6.103 2.167 10 2.167 6.122 0 11.423-1.49 14.858-4.5-.253-2.478-1.188-3.953-1.713-4.781-.217-.342-.364-.573-.364-.72 0-.624 3.72.5 4.843 2a12.056 12.056 0 0 0 1.139-3.346c-.84-1.43-2.004-2.456-2.69-3.06-.348-.306-.573-.504-.573-.593 0-.266 2.5 0 3.5.5 0-5-2.458-9.967-6.5-13.5C34.5 10.5 31 8 30 8s-3 .748-3.476.85a18.71 18.71 0 0 0-1.967-.102c-1.57 0-3.088.213-4.533.603C17.5 8 15 8.203 14 8.5c-2.034.604-3 4.5-4.174 7.748Z" fill="#FDB014"/><path d="M38.5 24.5c-1 3.5-5.227 2.967-12.654 3.618C18.418 28.769 14.5 29.5 12.5 26s1.5-13.08 12-14c10.5-.92 15 9 14 12.5Z" fill="#fff" stroke="#BB5023"/><path d="M31 20c0 2-6 5.223-7.5 4.5-1.5-.722-1.692-8 0-9S31 18 31 20Z" fill="#BB5023"/><path d="M22.98 33.138C22.96 33.776 22 35.5 21 35.5s-2.772-3.544-2-4c1 1 2.5 1.5 3.98 1.638ZM30 33s1.438 1.5 2 1.5c.563 0 1.5-2.5 1-3.5-1 1-1.5 1.5-3 2Z" fill="#fff"/><path d="M19 31.5C22.5 34 30.5 34 33 31" stroke="#BB5023" stroke-linecap="round"/></svg>
